public/images/sponsors/opbeat.svg

<?xml version="1.0" encoding="UTF-8" standalone="no"?>
<svg width="1200px" height="296px" viewBox="0 0 1200 296" version="1.1" xmlns="http://www.w3.org/2000/svg" xmlns:xlink="http://www.w3.org/1999/xlink">
    <!-- Generator: Sketch 3.8.1 (29687) - http://www.bohemiancoding.com/sketch -->
    <title>svg/logo/logo</title>
    <desc>Created with Sketch.</desc>
    <defs></defs>
    <g id="Primary" stroke="none" stroke-width="1" fill="none" fill-rule="evenodd">
        <g id="svg/logo/logo" fill="#3360A3">
            <path d="M486.419568,158.939348 C486.419568,129.8553 478.691223,116.861476 454.884604,116.861476 C432.006906,116.861476 423.96777,129.8553 423.96777,158.317304 C423.96777,187.710646 432.315971,200.706198 455.502734,200.706198 C479.000288,200.706198 486.419568,187.092057 486.419568,158.939348 L486.419568,158.939348 Z M522.59223,158.317304 C522.59223,202.254399 504.659568,232.572169 454.57554,232.572169 C406.654964,232.572169 387.796835,201.943376 387.796835,158.939348 C387.796835,115.005709 406.036835,84.9937772 455.811799,84.9937772 C504.041439,84.9937772 522.59223,115.315004 522.59223,158.317304 Z M610.513381,117.480065 C597.529209,117.480065 588.253813,123.358388 582.997986,129.236711 L582.997986,189.879164 C587.326619,193.899992 595.67482,200.087609 610.513381,200.087609 C635.556259,200.087609 642.35741,182.760207 642.35741,158.939348 C642.35741,135.115034 635.865324,117.480065 610.513381,117.480065 Z M532.604892,296 L532.604892,267.845563 L548.681439,263.511984 L548.681439,118.098654 L528.585324,118.098654 L528.585324,88.0884499 L580.216403,88.0884499 L580.216403,103.867652 C587.326619,94.5853619 597.529209,84.9937772 619.170647,84.9937772 C658.124892,84.9937772 678.530072,111.911036 678.530072,158.939348 C678.530072,205.038049 659.361151,232.572169 619.170647,232.572169 C600.001727,232.572169 589.490072,225.147374 582.997986,218.031873 L582.997986,265.98634 L612.987626,265.98634 L612.987626,296 L532.604892,296 Z M755.440576,117.480065 C740.29295,117.480065 731.943022,123.358388 727.92518,127.690239 L727.92518,188.019941 C732.871942,193.899992 742.458129,200.087609 755.131511,200.087609 C780.794245,200.087609 787.284604,181.832323 787.284604,158.317304 C787.284604,134.496445 780.483453,117.480065 755.440576,117.480065 Z M727.92518,99.8450959 C734.108201,92.729595 744.930647,84.9937772 763.788777,84.9937772 C804.290072,84.9937772 823.148201,112.529625 823.148201,158.317304 C823.148201,202.869532 802.743022,232.572169 763.788777,232.572169 C742.458129,232.572169 730.399424,225.767691 722.671079,218.342895 L704.738417,229.16993 L693.608633,229.16993 L693.608633,43.8455162 L673.203453,43.8455162 L673.203453,13.8335843 L727.92518,13.8335843 L727.92518,99.8450959 Z M924.978993,144.08803 C925.286331,142.228807 925.286331,140.684062 925.286331,139.754451 C925.286331,122.430504 913.541871,113.766803 899.316259,113.766803 C879.841727,113.766803 872.420719,127.380944 871.18446,144.08803 L924.978993,144.08803 Z M946.002302,189.879164 L957.132086,217.105717 C942.291799,226.384552 921.886619,232.572169 903.337554,232.572169 C854.489784,232.572169 834.395396,201.632354 834.395396,158.628326 C834.395396,118.407948 856.033381,84.9937772 899.316259,84.9937772 C942.291799,84.9937772 958.67741,115.624298 958.67741,145.942069 C958.67741,153.677886 957.750216,164.197354 956.203165,170.077405 L870.873669,170.077405 C871.495252,189.879164 882.003453,201.943376 903.648345,201.943376 C918.488633,201.943376 933.016403,197.611526 946.002302,189.879164 Z M1021.36921,203.799143 C1034.35338,203.799143 1046.41209,197.611526 1053.83309,190.805319 L1053.83309,169.147794 L1036.2095,171.314583 C1011.47568,174.098234 1004.36547,179.048673 1004.36547,189.257119 C1004.36547,198.848703 1010.23942,203.799143 1021.36921,203.799143 Z M1010.54849,137.900412 L980.248058,137.900412 C977.159137,132.022089 975.612086,125.525177 975.612086,118.717243 C975.612086,99.226507 993.544748,84.9937772 1032.49899,84.9937772 C1074.23482,84.9937772 1089.07511,97.3690122 1089.07511,137.58939 L1089.07511,192.353519 C1089.07511,198.230115 1092.16921,200.706198 1097.11597,200.706198 C1100.20489,200.706198 1102.9882,200.395176 1105.46072,199.778315 L1105.46072,229.16993 C1099.58849,230.407108 1092.16921,231.025697 1085.3646,231.025697 C1067.4354,231.025697 1058.15827,222.363723 1056.30561,209.368172 C1048.57554,220.817251 1033.11712,232.572169 1009.92863,232.572169 C983.651223,232.572169 967.574676,217.105717 967.574676,192.042497 C967.574676,161.10441 994.473669,151.203531 1036.2095,148.108858 L1053.83309,146.253091 L1053.83309,117.789359 C1049.19367,116.552181 1038.68201,115.933593 1032.49899,115.933593 C1022.60547,115.933593 1018.58417,116.242887 1010.54849,117.789359 L1010.54849,137.900412 Z M1161.66388,183.689818 C1161.66388,195.13717 1168.15424,200.087609 1177.74043,200.087609 C1182.68719,200.087609 1192.58072,199.157998 1199.07108,197.92082 L1200,228.243774 C1192.58072,230.71813 1177.43309,232.572169 1167.22878,232.572169 C1138.4754,232.572169 1127.34561,213.700022 1127.34561,188.640258 L1127.34561,118.098654 L1101.68633,118.098654 L1101.68633,91.1813947 L1127.34561,88.0884499 L1127.34561,53.435373 L1161.66388,47.8663444 L1161.66388,88.0884499 L1195.05324,88.0884499 L1195.05324,118.098654 L1161.66388,118.098654 L1161.66388,183.689818 Z M113.323165,153.738363 C69.8952518,137.829568 47.3542446,133.138314 38.9991367,131.795734 C43.7680576,124.129032 49.4469065,116.992797 55.9873381,110.594375 L214.758561,110.511436 C224.273957,119.800637 232.005755,130.6294 237.70705,142.422332 C222.46446,154.166883 180.341871,178.28494 113.323165,153.738363 Z M200.909353,138.603668 L172.793094,138.603668 C168.416115,138.603668 164.833381,142.005908 164.833381,146.168424 C164.833381,150.33094 168.416115,153.738363 172.793094,153.738363 L200.909353,153.738363 C205.288058,153.738363 208.869065,150.33094 208.869065,146.168424 C208.869065,142.005908 205.288058,138.603668 200.909353,138.603668 Z M200.909353,184.833689 L172.793094,184.833689 C168.416115,184.833689 164.833381,181.427994 164.833381,177.262022 C164.833381,173.101234 168.416115,169.700723 172.793094,169.700723 L200.909353,169.700723 C205.288058,169.700723 208.869065,173.101234 208.869065,177.262022 C208.869065,181.427994 205.288058,184.833689 200.909353,184.833689 L200.909353,184.833689 Z M200.909353,215.802879 L172.793094,215.802879 C168.416115,215.802879 164.833381,212.393728 164.833381,208.23294 C164.833381,204.072152 168.416115,200.67164 172.793094,200.67164 L200.909353,200.67164 C205.288058,200.67164 208.869065,204.072152 208.869065,208.23294 C208.869065,212.393728 205.288058,215.802879 200.909353,215.802879 L200.909353,215.802879 Z M200.909353,246.896478 L172.793094,246.896478 C168.416115,246.896478 164.833381,243.489055 164.833381,239.326538 C164.833381,235.169206 168.416115,231.763511 172.793094,231.763511 L200.909353,231.763511 C205.288058,231.763511 208.869065,235.169206 208.869065,239.326538 C208.869065,243.489055 205.288058,246.896478 200.909353,246.896478 L200.909353,246.896478 Z M226.364892,91.5736285 L223.250072,88.7502364 L47.4647482,88.8435431 L44.3602878,91.6652073 C16.1680576,117.314186 0,153.871411 0,191.968197 C0,230.132371 16.2077698,266.729338 44.4707914,292.376589 L47.5769784,295.198253 L223.360576,295.106675 L226.466763,292.281555 C254.658993,266.634304 270.825324,230.078806 270.825324,191.968197 C270.825324,153.810935 254.621007,117.219152 226.364892,91.5736285 Z M68.6883453,55.3792628 L68.1289209,53.9520157 C67.4728058,52.5835172 66.6871942,51.121712 65.7807194,49.5735117 C65.3007194,48.7320234 64.894964,48.0702369 64.6083453,47.6192544 L64.5997122,47.6192544 L64.1438849,46.9090867 C59.3438849,39.4048078 52.9657554,31.9005289 47.5044604,27.3319557 L37.4382734,18.8911538 L215.469928,31.7242829 C216.808058,31.8193175 217.719712,32.0664075 218.244604,32.251293 L219.691511,32.7575683 L219.185612,34.2090061 C218.912806,34.9917458 218.475971,35.8280504 217.883741,36.6937293 L216.647482,38.518394 C213.392806,43.3323293 207.342734,54.9991244 205.08259,59.4173701 L70.2647482,59.4519281 C69.8106475,58.1248993 69.2995683,56.7875031 68.6883453,55.3792628 Z M280.777554,87.609821 C269.75482,74.1097218 257.447482,64.360898 245.16259,59.4052748 L225.876259,59.4104585 L226.18705,58.8765367 C228.687194,54.563693 232.984748,47.0836048 233.046906,46.9833865 C239.124604,38.006935 240.811511,30.5683163 238.052374,24.8766068 C235.079137,18.7408264 226.532374,14.1463346 216.783885,13.4413506 L31.8215827,0.105402029 C30.7856115,0.0345580423 29.8083453,0 28.8880576,0 C17.3214388,0 13.5107914,5.74527454 12.2641727,9.17170444 C9.9781295,15.4595402 12.7752518,22.136154 20.4086331,28.5293918 C20.4932374,28.6088753 29.2109353,36.6850898 37.3571223,45.0809662 C41.1988489,48.8823509 44.2653237,53.717021 46.4684892,59.4571118 L46.7741007,78.5832604 L234.459281,78.3206192 C234.459281,78.3206192 248.914532,84.539339 263.169496,102.003246 C283.313957,126.691511 301.610935,171.72928 293.276547,224.717126 L316.237122,224.717126 C324.391942,165.712725 303.358273,115.285629 280.777554,87.609821 L280.777554,87.609821 Z" id="logo"></path>
        </g>
    </g>
</svg>

<svg viewBox="0 0 1200 296" xmlns="http://www.w3.org/2000/svg"><title>svg/logo/logo</title><path d="M486.42 158.94c0-29.085-7.73-42.08-31.535-42.08-22.878 0-30.917 12.995-30.917 41.457 0 29.394 8.348 42.39 31.535 42.39 23.497 0 30.917-13.615 30.917-41.768zm36.172-.623c0 43.937-17.932 74.255-68.016 74.255-47.92 0-66.78-30.63-66.78-73.633 0-43.934 18.24-73.946 68.016-73.946 48.23 0 66.78 30.32 66.78 73.323zm87.92-40.837c-12.983 0-22.258 5.878-27.514 11.757v60.642c4.33 4.02 12.677 10.208 27.515 10.208 25.043 0 31.844-17.328 31.844-41.15 0-23.823-6.492-41.458-31.844-41.458zM532.606 296v-28.154l16.076-4.334V118.1h-20.095V88.087h51.63v15.78c7.112-9.283 17.314-18.874 38.956-18.874 38.955 0 59.36 26.917 59.36 73.945 0 46.098-19.17 73.632-59.36 73.632-19.168 0-29.68-7.425-36.172-14.54v47.954h29.99V296h-80.383zM755.44 117.48c-15.147 0-23.497 5.878-27.515 10.21v60.33c4.947 5.88 14.533 12.068 27.207 12.068 25.662 0 32.153-18.256 32.153-41.77 0-23.822-6.802-40.838-31.844-40.838zm-27.515-17.635c6.183-7.115 17.006-14.85 35.864-14.85 40.5 0 59.358 27.535 59.358 73.322 0 44.553-20.405 74.255-59.36 74.255-21.33 0-33.39-6.804-41.117-14.23L704.74 229.17h-11.13V43.846h-20.405V13.834h54.722v86.01zm197.054 44.243c.306-1.86.306-3.404.306-4.334 0-17.323-11.744-25.987-25.97-25.987-19.474 0-26.895 13.614-28.132 30.32h53.795zM946 189.878l11.13 27.228c-14.84 9.28-35.245 15.466-53.794 15.466-48.848 0-68.943-30.94-68.943-73.944 0-40.22 21.638-73.634 64.92-73.634 42.977 0 59.362 30.63 59.362 60.948 0 7.736-.927 18.255-2.474 24.135h-85.33c.622 19.802 11.13 31.866 32.775 31.866 14.84 0 29.368-4.33 42.354-12.064zm75.367 13.92c12.983 0 25.042-6.186 32.463-12.993v-21.657l-17.624 2.167c-24.734 2.783-31.845 7.734-31.845 17.942 0 9.592 5.874 14.542 17.004 14.542zm-10.822-65.898h-30.3c-3.09-5.878-4.636-12.375-4.636-19.183 0-19.49 17.933-33.723 56.887-33.723 41.735 0 56.575 12.375 56.575 52.595v54.764c0 5.876 3.094 8.352 8.04 8.352 3.09 0 5.873-.31 8.346-.928v29.392c-5.872 1.237-13.29 1.856-20.095 1.856-17.93 0-27.207-8.662-29.06-21.658-7.73 11.45-23.188 23.204-46.376 23.204-26.28 0-42.355-15.466-42.355-40.53 0-30.938 26.9-40.838 68.634-43.933l17.623-1.857V117.79c-4.64-1.238-15.15-1.856-21.334-1.856-9.895 0-13.916.31-21.952 1.855v20.11zm151.116 45.79c0 11.447 6.49 16.398 16.076 16.398 4.947 0 14.84-.93 21.33-2.167l.93 30.324c-7.42 2.474-22.567 4.328-32.77 4.328-28.755 0-39.884-18.872-39.884-43.932V118.1h-25.66V91.18l25.66-3.092V53.435l34.318-5.57V88.09h33.39v30.01h-33.39v65.592zm-1048.34-29.952c-43.43-15.908-65.97-20.6-74.325-21.942 4.768-7.667 10.447-14.803 16.987-21.202l158.772-.083c9.514 9.29 17.246 20.12 22.947 31.912-15.243 11.745-57.365 35.863-124.384 11.316zm87.585-15.134h-28.117c-4.377 0-7.96 3.402-7.96 7.564 0 4.163 3.583 7.57 7.96 7.57h28.116c4.378 0 7.96-3.407 7.96-7.57 0-4.162-3.582-7.564-7.96-7.564zm0 46.23h-28.117c-4.377 0-7.96-3.406-7.96-7.572 0-4.16 3.583-7.56 7.96-7.56h28.116c4.378 0 7.96 3.4 7.96 7.56 0 4.166-3.582 7.572-7.96 7.572zm0 30.97h-28.117c-4.377 0-7.96-3.41-7.96-7.57 0-4.162 3.583-7.562 7.96-7.562h28.116c4.378 0 7.96 3.4 7.96 7.56 0 4.162-3.582 7.57-7.96 7.57zm0 31.092h-28.117c-4.377 0-7.96-3.407-7.96-7.57 0-4.157 3.583-7.562 7.96-7.562h28.116c4.378 0 7.96 3.405 7.96 7.563 0 4.162-3.582 7.57-7.96 7.57zm25.455-155.322l-3.115-2.824-175.785.094-3.105 2.82C16.168 117.315 0 153.872 0 191.97c0 38.164 16.208 74.76 44.47 100.41l3.107 2.82 175.784-.09 3.107-2.826c28.192-25.648 44.358-62.203 44.358-100.314 0-38.157-16.204-74.75-44.46-100.394zM68.688 55.38l-.56-1.428c-.655-1.368-1.44-2.83-2.347-4.378-.48-.842-.885-1.504-1.172-1.955H64.6l-.456-.71c-4.8-7.505-11.178-15.01-16.64-19.578l-10.066-8.44L215.47 31.723c1.338.095 2.25.342 2.775.527l1.447.508-.506 1.45c-.273.784-.71 1.62-1.302 2.486l-1.237 1.824c-3.254 4.814-9.304 16.48-11.564 20.9l-134.818.034c-.454-1.327-.965-2.664-1.577-4.073zm212.09 32.23c-11.023-13.5-23.33-23.25-35.615-28.205l-19.287.005.31-.533c2.5-4.313 6.8-11.793 6.86-11.894 6.08-8.976 7.766-16.415 5.006-22.106-2.973-6.136-11.52-10.73-21.268-11.436L31.822.106C30.786.035 29.808 0 28.888 0 17.32 0 13.51 5.745 12.264 9.172c-2.286 6.288.51 12.964 8.145 19.357.083.08 8.8 8.155 16.947 16.55 3.842 3.802 6.908 8.637 9.11 14.377l.307 19.126 187.685-.262s14.455 6.22 28.71 23.683c20.144 24.69 38.44 69.726 30.107 122.714h22.96c8.155-59.004-12.88-109.43-35.46-137.107z" fill="#3360A3" fill-rule="evenodd"/></svg>
